X:1
T:Nothing Between
T:John Harrison Tenney
T:Nothing Between
T:Public Domain
T:Public Domain
C:John Harrison Tenney
Z:Public Domain
%%score 1 ( 2 3 )
L:1/8
M:6/8
K:Ab
V:1 treble 
V:2 bass 
V:3 bass 
V:1
 [Ec][DB][CA] | [DF]3 [CE]3 | [CA][DB][Ec] [Ed]2 [Ec] | [EB]3- [EB]2 z | [FB][FB][Fc] [Fd]2 [Fd] | %5
w: 1.~“We would see|Je- sus”;|Show us Thy lov- ing|face; *|Draw us, dear Lord, to|
w: 2.~“We would see|Je- sus”;|Let us Thy glo- ry|see; *|Shine with a bright- er|
w: 3.~“We would see|Je- sus”;|No- thing of earth- ly|din *|Com- ing, O Lord, be-|
 [EB]3- [EB]2 z | [Ec][Ec][Ec] [A=d]2 [Ad] | [Ge]3- [Ge]2 z ||"^Refrain" [Ae][Ae][Ae] [Ac]2 [_AB] | %9
w: Thee, *|Close in Thy fond em-|brace. *||
w: ray, *|Bid- ding the dark- ness|flee. *|No- thing be- tween, dear|
w: tween, *|No- thing of pride or|sin. *||
 [FA]3 [DF]3 | ([CA]3 [CA])[DB][Ec] | [EB]3- [EB]2 [EB] | [Ec]2 [Fd] [Ec]2 [Ee] | [Fd]3 [DF]3 | %14
w: |||||
w: Je- sus,|No- * thing be-|tween; * O|come in love so|near us,|
w: |||||
 ([CE]3 [CE])[DF][CE] | ([CA]3 [Ec]3) | ([DB]3 [DB])[Ec][DB] | [CA]3 |] %18
w: ||||
w: No- * thing be-|tween, *|No- * thing be-|tween.|
w: ||||
V:2
 [A,,E,][A,,E,][A,,E,] | (F,2 G,) [A,,A,]3 | A,A,A, [G,B,]2 A, | [E,G,]3- [E,G,]2 z | %4
 [D,F,][D,B,][C,=A,] [B,,B,]2 [B,,B,] | [E,G,]3- [E,G,]2 z | A,A,A, [F,B,]2 [F,B,] | %7
 [E,B,]3- [E,B,]2 z || [A,C][A,C][A,C] [A,E]2 [A,C] | [D,D]3 [D,A,]3 | z3 [A,,A,][A,,A,][A,,A,] | %11
 [E,G,]3- [E,G,]2 [E,G,] | [A,,A,]2 [A,,A,] [A,,A,]2 [C,A,] | [D,A,]3 [D,A,]3 | %14
 z3 [A,,B,][A,,B,][A,,B,] | ([A,,A,]3 [A,,A,]3) | z3 [E,G,][E,G,][E,G,] | [A,,A,]3 |] %18
V:3
 x3 | A,,3 x3 | A,A,A, x A, x | x6 | x6 | x6 | A,A,A, x3 | x6 || x6 | x6 | x6 | x6 | x6 | x6 | x6 | %15
 x6 | x6 | x3 |] %18

